ix/refresh-left-square_twotone.svg

<svg viewBox="0 0 24 24" fill="none" xmlns="http://www.w3.org/2000/svg" height="1em" width="1em">
  <g opacity="0.4">
    <path d="M10.33 7.51025C10.83 7.36025 11.38 7.26025 12 7.26025C14.76 7.26025 17 9.50025 17 12.2603C17 15.0203 14.76 17.2603 12 17.2603C9.24 17.2603 7 15.0203 7 12.2603C7 11.2303 7.31 10.2803 7.84 9.48026" stroke="#292D32" stroke-width="1.5" stroke-linecap="round" stroke-linejoin="round"/>
    <path d="M9.62109 7.65024L11.2811 5.74023" stroke="#292D32" stroke-width="1.5" stroke-linecap="round" stroke-linejoin="round"/>
    <path d="M9.62109 7.65039L11.5611 9.07039" stroke="#292D32" stroke-width="1.5" stroke-linecap="round" stroke-linejoin="round"/>
  </g>
  <path d="M9 22H15C20 22 22 20 22 15V9C22 4 20 2 15 2H9C4 2 2 4 2 9V15C2 20 4 22 9 22Z" stroke="#292D32" stroke-width="1.5" stroke-linecap="round" stroke-linejoin="round"/>
</svg>

<svg viewBox="0 0 24 24" fill="none" xmlns="http://www.w3.org/2000/svg" height="1em" width="1em">
  <path d="M10.33 7.51c.5-.15 1.05-.25 1.67-.25 2.76 0 5 2.24 5 5s-2.24 5-5 5a5.002 5.002 0 0 1-4.16-7.78m1.781-1.83 1.66-1.91m-1.66 1.91 1.94 1.42" opacity=".4" stroke="#292D32" stroke-width="1.5" stroke-linecap="round" stroke-linejoin="round"/>
  <path d="M9 22h6c5 0 7-2 7-7V9c0-5-2-7-7-7H9C4 2 2 4 2 9v6c0 5 2 7 7 7Z" stroke="#292D32" stroke-width="1.5" stroke-linecap="round" stroke-linejoin="round"/>
</svg>
